app/src/assets/icons/website/money.svg

<svg height="512" viewBox="0 0 24 24" width="512" xmlns="http://www.w3.org/2000/svg"><path d="m22 4h-20a1 1 0 0 0 -1 1v14a1 1 0 0 0 1 1h20a1 1 0 0 0 1-1v-14a1 1 0 0 0 -1-1zm-1 12.184a2.987 2.987 0 0 0 -1.816 1.816h-14.368a2.987 2.987 0 0 0 -1.816-1.816v-8.368a2.987 2.987 0 0 0 1.816-1.816h14.368a2.987 2.987 0 0 0 1.816 1.816z"/><path d="m12 8a4 4 0 1 0 4 4 4 4 0 0 0 -4-4zm0 6a2 2 0 1 1 2-2 2 2 0 0 1 -2 2z"/><path d="m6 11h-1a1 1 0 0 0 0 2h1a1 1 0 0 0 0-2z"/><path d="m19 11h-1a1 1 0 0 0 0 2h1a1 1 0 0 0 0-2z"/></svg>

<svg height="512" viewBox="0 0 24 24" width="512" xmlns="http://www.w3.org/2000/svg"><path d="M22 4H2a1 1 0 00-1 1v14a1 1 0 001 1h20a1 1 0 001-1V5a1 1 0 00-1-1zm-1 12.184A2.987 2.987 0 0019.184 18H4.816A2.987 2.987 0 003 16.184V7.816A2.987 2.987 0 004.816 6h14.368A2.987 2.987 0 0021 7.816z"/><path d="M12 8a4 4 0 104 4 4 4 0 00-4-4zm0 6a2 2 0 112-2 2 2 0 01-2 2zM6 11H5a1 1 0 000 2h1a1 1 0 000-2zM19 11h-1a1 1 0 000 2h1a1 1 0 000-2z"/></svg>
